X:164
T: ICH STAND AUF HOHEM BERGE
N: E0089C
O: Europa, Mitteleuropa, Deutschland
R: erzaehlendes Volks - Lied, Sage, Liebe, Leid
M: 2/4
L: 1/16
K: F
FA | c2cfcABG | A4G2
G2 | A2AcB2Bd | c4z2
c2 | f2f2edc2 | d4c4 | B4A2
c2 | d2cBA2G2 | F4z2

